app/assets/images/icons/active/block.svg

<?xml version="1.0" encoding="UTF-8" standalone="no"?>
<svg width="32px" height="232px" viewBox="0 0 32 232" version="1.1" xmlns="http://www.w3.org/2000/svg" xmlns:xlink="http://www.w3.org/1999/xlink" xmlns:sketch="http://www.bohemiancoding.com/sketch/ns">
    <title>block</title>
    <description>Created with Sketch (http://www.bohemiancoding.com/sketch)</description>
    <defs></defs>
    <g id="Actions" stroke="none" stroke-width="1" fill="none" fill-rule="evenodd" sketch:type="MSPage">
        <path d="M24.83775,127.66 C22.39675,125.221 19.19875,124 15.99975,124 C12.79975,124 9.60075,125.221 7.16075,127.66 C2.27975,132.543 2.27975,140.457 7.16075,145.338 C9.60075,147.78 12.79975,149 15.99975,149 C19.19875,149 22.39675,147.78 24.83775,145.338 C29.71875,140.457 29.71875,132.541 24.83775,127.66 C24.83775,127.66 29.71875,132.541 24.83775,127.66 L24.83775,127.66 L24.83775,127.66 Z M7.89275,136.5 C7.89275,134.334 8.73675,132.3 10.26575,130.768 C11.79775,129.237 13.83375,128.393 15.99975,128.393 C17.38375,128.393 18.70975,128.74 19.88875,129.389 L8.88775,140.391 C8.24075,139.211 7.89275,137.885 7.89275,136.5 C7.89275,136.5 7.89275,137.885 7.89275,136.5 L7.89275,136.5 L7.89275,136.5 Z M21.72975,142.233 C20.19975,143.762 18.16475,144.606 15.99975,144.606 C14.61575,144.606 13.28875,144.258 12.11075,143.612 L23.11175,132.612 C23.75775,133.789 24.10575,135.118 24.10575,136.5 C24.10575,138.666 23.25975,140.702 21.72975,142.233 L21.72975,142.233 Z M21.72975,142.233" id="block--lp-blue" fill="#206FAC" sketch:type="MSShapeGroup"></path>
        <path d="M24.83775,87.66 C22.39675,85.221 19.19875,84 15.99975,84 C12.79975,84 9.60075,85.221 7.16075,87.66 C2.27975,92.543 2.27975,100.457 7.16075,105.338 C9.60075,107.78 12.79975,109 15.99975,109 C19.19875,109 22.39675,107.78 24.83775,105.338 C29.71875,100.457 29.71875,92.541 24.83775,87.66 C24.83775,87.66 29.71875,92.541 24.83775,87.66 L24.83775,87.66 L24.83775,87.66 Z M7.89275,96.5 C7.89275,94.334 8.73675,92.3 10.26575,90.768 C11.79775,89.237 13.83375,88.393 15.99975,88.393 C17.38375,88.393 18.70975,88.74 19.88875,89.389 L8.88775,100.391 C8.24075,99.211 7.89275,97.885 7.89275,96.5 C7.89275,96.5 7.89275,97.885 7.89275,96.5 L7.89275,96.5 L7.89275,96.5 Z M21.72975,102.233 C20.19975,103.762 18.16475,104.606 15.99975,104.606 C14.61575,104.606 13.28875,104.258 12.11075,103.612 L23.11175,92.612 C23.75775,93.789 24.10575,95.118 24.10575,96.5 C24.10575,98.666 23.25975,100.702 21.72975,102.233 L21.72975,102.233 Z M21.72975,102.233" id="block--white" fill="#FFFFFF" sketch:type="MSShapeGroup"></path>
        <path d="M24.83775,47.66 C22.39675,45.221 19.19875,44 15.99975,44 C12.79975,44 9.60075,45.221 7.16075,47.66 C2.27975,52.543 2.27975,60.457 7.16075,65.338 C9.60075,67.78 12.79975,69 15.99975,69 C19.19875,69 22.39675,67.78 24.83775,65.338 C29.71875,60.457 29.71875,52.541 24.83775,47.66 C24.83775,47.66 29.71875,52.541 24.83775,47.66 L24.83775,47.66 L24.83775,47.66 Z M7.89275,56.5 C7.89275,54.334 8.73675,52.3 10.26575,50.768 C11.79775,49.237 13.83375,48.393 15.99975,48.393 C17.38375,48.393 18.70975,48.74 19.88875,49.389 L8.88775,60.391 C8.24075,59.211 7.89275,57.885 7.89275,56.5 C7.89275,56.5 7.89275,57.885 7.89275,56.5 L7.89275,56.5 L7.89275,56.5 Z M21.72975,62.233 C20.19975,63.762 18.16475,64.606 15.99975,64.606 C14.61575,64.606 13.28875,64.258 12.11075,63.612 L23.11175,52.612 C23.75775,53.789 24.10575,55.118 24.10575,56.5 C24.10575,58.666 23.25975,60.702 21.72975,62.233 L21.72975,62.233 Z M21.72975,62.233" id="block--body-grey" fill="#67737B" sketch:type="MSShapeGroup"></path>
        <path d="M24.83775,7.66 C22.39675,5.221 19.19875,4 15.99975,4 C12.79975,4 9.60075,5.221 7.16075,7.66 C2.27975,12.543 2.27975,20.457 7.16075,25.338 C9.60075,27.78 12.79975,29 15.99975,29 C19.19875,29 22.39675,27.78 24.83775,25.338 C29.71875,20.457 29.71875,12.541 24.83775,7.66 C24.83775,7.66 29.71875,12.541 24.83775,7.66 L24.83775,7.66 L24.83775,7.66 Z M7.89275,16.5 C7.89275,14.334 8.73675,12.3 10.26575,10.768 C11.79775,9.237 13.83375,8.393 15.99975,8.393 C17.38375,8.393 18.70975,8.74 19.88875,9.389 L8.88775,20.391 C8.24075,19.211 7.89275,17.885 7.89275,16.5 C7.89275,16.5 7.89275,17.885 7.89275,16.5 L7.89275,16.5 L7.89275,16.5 Z M21.72975,22.233 C20.19975,23.762 18.16475,24.606 15.99975,24.606 C14.61575,24.606 13.28875,24.258 12.11075,23.612 L23.11175,12.612 C23.75775,13.789 24.10575,15.118 24.10575,16.5 C24.10575,18.666 23.25975,20.702 21.72975,22.233 L21.72975,22.233 Z M21.72975,22.233" id="block--title-grey" fill="#3A434E" sketch:type="MSShapeGroup"></path>
    </g>
</svg>

<svg width="32" height="232" viewBox="0 0 32 232" xmlns="http://www.w3.org/2000/svg" xmlns:sketch="http://www.bohemiancoding.com/sketch/ns"><title>block</title><g sketch:type="MSPage" fill="none"><path d="M24.838 127.66c-2.441-2.439-5.639-3.66-8.838-3.66-3.2 0-6.399 1.221-8.839 3.66-4.881 4.883-4.881 12.797 0 17.678 2.44 2.442 5.639 3.662 8.839 3.662 3.199 0 6.397-1.22 8.838-3.662 4.881-4.881 4.881-12.797 0-17.678zm-16.945 8.84c0-2.166.844-4.2 2.373-5.732 1.532-1.531 3.568-2.375 5.734-2.375 1.384 0 2.71.347 3.889.996l-11.001 11.002c-.647-1.18-.995-2.506-.995-3.891zm13.837 5.733c-1.53 1.529-3.565 2.373-5.73 2.373-1.384 0-2.711-.348-3.889-.994l11.001-11c.646 1.177.994 2.506.994 3.888 0 2.166-.846 4.202-2.376 5.733zm0 0" fill="#206FAC" sketch:type="MSShapeGroup"/><path d="M24.838 87.66c-2.441-2.439-5.639-3.66-8.838-3.66-3.2 0-6.399 1.221-8.839 3.66-4.881 4.883-4.881 12.797 0 17.678 2.44 2.442 5.639 3.662 8.839 3.662 3.199 0 6.397-1.22 8.838-3.662 4.881-4.881 4.881-12.797 0-17.678zm-16.945 8.84c0-2.166.844-4.2 2.373-5.732 1.532-1.531 3.568-2.375 5.734-2.375 1.384 0 2.71.347 3.889.996l-11.001 11.002c-.647-1.18-.995-2.506-.995-3.891zm13.837 5.733c-1.53 1.529-3.565 2.373-5.73 2.373-1.384 0-2.711-.348-3.889-.994l11.001-11c.646 1.177.994 2.506.994 3.888 0 2.166-.846 4.202-2.376 5.733zm0 0" fill="#fff" sketch:type="MSShapeGroup"/><path d="M24.838 47.66c-2.441-2.439-5.639-3.66-8.838-3.66-3.2 0-6.399 1.221-8.839 3.66-4.881 4.883-4.881 12.797 0 17.678 2.44 2.442 5.639 3.662 8.839 3.662 3.199 0 6.397-1.22 8.838-3.662 4.881-4.881 4.881-12.797 0-17.678zm-16.945 8.84c0-2.166.844-4.2 2.373-5.732 1.532-1.531 3.568-2.375 5.734-2.375 1.384 0 2.71.347 3.889.996l-11.001 11.002c-.647-1.18-.995-2.506-.995-3.891zm13.837 5.733c-1.53 1.529-3.565 2.373-5.73 2.373-1.384 0-2.711-.348-3.889-.994l11.001-11c.646 1.177.994 2.506.994 3.888 0 2.166-.846 4.202-2.376 5.733zm0 0" fill="#67737B" sketch:type="MSShapeGroup"/><path d="M24.838 7.66c-2.441-2.439-5.639-3.66-8.838-3.66-3.2 0-6.399 1.221-8.839 3.66-4.881 4.883-4.881 12.797 0 17.678 2.44 2.442 5.639 3.662 8.839 3.662 3.199 0 6.397-1.22 8.838-3.662 4.881-4.881 4.881-12.797 0-17.678zm-16.945 8.84c0-2.166.844-4.2 2.373-5.732 1.532-1.531 3.568-2.375 5.734-2.375 1.384 0 2.71.347 3.889.996l-11.001 11.002c-.647-1.18-.995-2.506-.995-3.891zm13.837 5.733c-1.53 1.529-3.565 2.373-5.73 2.373-1.384 0-2.711-.348-3.889-.994l11.001-11c.646 1.177.994 2.506.994 3.888 0 2.166-.846 4.202-2.376 5.733zm0 0" fill="#3A434E" sketch:type="MSShapeGroup"/></g></svg>
